icon-themes/breeze_svg/svx/res/dsth_low.svg

<svg viewBox="0 0 16 16" xmlns="http://www.w3.org/2000/svg"><path d="m5 2-3 2 3 2zm2 0v4l3-2zm-5 4v1 .5 4.5 2h1v-2h4v-5h-2-1-1v-1zm7 0v1 6 1h1v-1h1 1 2v-6h-1-1-1-1v-1zm-6 2h3v3h-3zm7 0h3v4h-3z" fill="#4d4d4d"/></svg>

<svg xmlns="http://www.w3.org/2000/svg" viewBox="0 0 16 16">
 <path 
     style="fill:#4d4d4d" 
     d="M 5 2 L 2 4 L 5 6 L 5 2 z M 7 2 L 7 6 L 10 4 L 7 2 z M 2 6 L 2 7 L 2 7.5 L 2 12 L 2 14 L 3 14 L 3 12 L 7 12 L 7 7 L 5 7 L 4 7 L 3 7 L 3 6 L 2 6 z M 9 6 L 9 7 L 9 13 L 9 14 L 10 14 L 10 13 L 11 13 L 12 13 L 14 13 L 14 7 L 13 7 L 12 7 L 11 7 L 10 7 L 10 6 L 9 6 z M 3 8 L 6 8 L 6 11 L 3 11 L 3 8 z M 10 8 L 13 8 L 13 12 L 10 12 L 10 8 z "
     />
</svg>
